X:81
T:Brunswick Waltz. JGi.081
O:Tealby,Lincolnshire
M:3/8
L:1/8
Q:3/8=60
S:Joshua Gibbons MS,1823,Tealby,Lincs.
R:waltz
Z:VMP/R.Greig, 2009
K:F
F/G/|AAB|c2f/d/|ccd/B/|AAF/G/|AAB|c2f|gg/f/g/a/|f2:|
|:c|bbc|aaf|e e/g/f/a/|ggc|bbc|aaf|ge/c/d/e/|f2:|
A/B/|ccd|cc A/c/|BBG/B/|AFA/B/|ccd|ccf|gg/f/g/a/f3||

